public/assets/routes_avatar/otherBusinessInputTaxRollOut.svg

<?xml version="1.0" encoding="UTF-8"?>
<svg width="60px" height="60px" viewBox="0 0 60 60" version="1.1" xmlns="http://www.w3.org/2000/svg" xmlns:xlink="http://www.w3.org/1999/xlink">
    <!-- Generator: Sketch 49.3 (51167) - http://www.bohemiancoding.com/sketch -->
    <title>进项管理-其他类型进项税额转出台账</title>
    <desc>Created with Sketch.</desc>
    <defs>
        <rect id="path-1" x="0" y="4" width="24" height="24" rx="2"></rect>
        <path d="M21.3497466,21.597088 L25.811005,21.597088 C25.8117827,21.597088 25.8125603,21.5952585 25.8117827,21.5952585 L24.1289932,19.6925551 C23.9929081,19.5388752 23.9882423,19.2836568 24.1196616,19.1235735 C24.2503033,18.9634903 24.4672619,18.9580017 24.603347,19.1125964 L26.8950201,21.7032003 C26.9618962,21.7791255 27,21.8843231 27,21.9931797 C27,22.102951 26.9618962,22.2072338 26.8950201,22.283159 L24.5909049,24.8874844 C24.5248064,24.9624948 24.4392672,25 24.353728,25 C24.263523,25 24.1740957,24.9588357 24.1072196,24.8765072 C23.9765779,24.716424 23.980466,24.4612056 24.1165511,24.3075257 L25.7993406,22.4048222 C25.8001182,22.4039075 25.7993406,22.4029927 25.798563,22.4029927 L21.3419703,22.4029927 C21.1600051,22.4029927 21.0114779,22.2355914 21.0005911,22.0251963 C20.9889267,21.7910174 21.1514512,21.597088 21.3497466,21.597088 Z" id="path-2"></path>
    </defs>
    <g id="icon" stroke="none" stroke-width="1" fill="none" fill-rule="evenodd">
        <g id="进项管理-其他类型进项税额转出台账">
            <circle id="Oval-Copy" fill="#5473F2" cx="30" cy="30" r="30"></circle>
            <g id="Group-50" transform="translate(15.000000, 16.000000)">
                <rect id="Rectangle-5" stroke="#FFFFFF" stroke-width="1.5" x="4.75" y="0.75" width="22.5" height="22.5" rx="2"></rect>
                <g id="Rectangle-5-Copy">
                    <use fill="#5473F2" fill-rule="evenodd" xlink:href="#path-1"></use>
                    <rect stroke="#FFFFFF" stroke-width="1.5" x="0.75" y="4.75" width="22.5" height="22.5" rx="2"></rect>
                </g>
                <rect id="Rectangle-3-Copy-3" fill="#FFFFFF" x="4" y="8" width="15" height="1.5" rx="0.75"></rect>
                <rect id="Rectangle-3-Copy-4" fill="#FFFFFF" x="4" y="13" width="15" height="1.5" rx="0.75"></rect>
                <circle id="Oval-5" fill="#5473F2" cx="23.5" cy="21.5" r="7.5"></circle>
                <circle id="Oval-5" stroke="#FFFFFF" stroke-width="1.5" fill="#5473F2" cx="24" cy="22" r="6"></circle>
                <g id="Shape" fill-rule="nonzero">
                    <use fill="#FFFFFF" fill-rule="evenodd" xlink:href="#path-2"></use>
                    <path stroke="#FFFFFF" stroke-width="0.25" d="M25.5359744,21.472088 L24.0354102,19.7754237 C23.8583833,19.5755086 23.8528814,19.2515406 24.0228176,19.0445404 C24.2022579,18.8246613 24.5100495,18.8174279 24.6969718,19.029775 L26.9888213,21.6205787 C27.0762315,21.7198165 27.125,21.8545082 27.125,21.9931797 C27.125,22.1324609 27.0764154,22.2663341 26.9886395,22.3659866 L24.6846887,24.9701258 C24.5968669,25.0697885 24.478099,25.125 24.353728,25.125 C24.2226177,25.125 24.098685,25.0642551 24.0103755,24.9555403 C23.8410282,24.7480288 23.8462214,24.4242558 24.0229175,24.2247142 L25.5235609,22.5279927 L21.3419703,22.5279927 C21.0897008,22.5279927 20.8899376,22.305684 20.8757459,22.0314148 C20.8607992,21.7313409 21.0740572,21.472088 21.3497466,21.472088 L25.5359744,21.472088 Z"></path>
                </g>
                <path d="M4.11285266,18.5699039 L5.14106583,18.5699039 L5.14106583,18.0512273 L5.79937304,18.0512273 L5.79937304,18.5699039 L7.86833856,18.5699039 L7.86833856,18.0512273 L8.52664577,18.0512273 L8.52664577,18.5699039 L9.55485893,18.5699039 L9.55485893,19.1974386 L8.52664577,19.1974386 L8.52664577,21.9124867 L9.67398119,21.9124867 L9.67398119,22.5336179 L4,22.5336179 L4,21.9124867 L5.14106583,21.9124867 L5.14106583,19.1974386 L4.11285266,19.1974386 L4.11285266,18.5699039 Z M5.79937304,21.9124867 L7.86833856,21.9124867 L7.86833856,21.361793 L5.79937304,21.361793 L5.79937304,21.9124867 Z M5.79937304,20.7982924 L7.86833856,20.7982924 L7.86833856,20.2796158 L5.79937304,20.2796158 L5.79937304,20.7982924 Z M5.79937304,19.7161153 L7.86833856,19.7161153 L7.86833856,19.1974386 L5.79937304,19.1974386 L5.79937304,19.7161153 Z M5.87460815,22.565635 L6.33855799,22.9882604 C5.8369906,23.3596585 5.22257053,23.6926361 4.49529781,23.9807898 L4.0815047,23.4300961 C4.78996865,23.1867663 5.38557994,22.8986126 5.87460815,22.565635 Z M7.70532915,22.5976521 C8.39498433,22.8217716 9.02194357,23.090715 9.5862069,23.398079 L9.22257053,23.9807898 C8.62068966,23.6093917 8.00626959,23.3148346 7.37304075,23.1035219 L7.70532915,22.5976521 Z M11.4796238,18 L12.0689655,18.2881537 C11.9310345,18.7491996 11.7492163,19.1974386 11.523511,19.6264674 L11.523511,24 L10.8777429,24 L10.8777429,20.6510139 C10.7147335,20.86873 10.539185,21.0800427 10.3573668,21.284952 L10.1442006,20.5997866 C10.7460815,19.8633938 11.1912226,18.9989328 11.4796238,18 Z M15.1034483,23.8655283 L12.984326,23.8655283 C12.4576803,23.8655283 12.1943574,23.583778 12.1943574,23.0266809 L12.1943574,20.6958378 L11.7115987,20.8431163 L11.7115987,20.1643543 L12.1943574,20.0106724 L12.1943574,18.6531483 L12.846395,18.6531483 L12.846395,19.7993597 L13.5673981,19.5688367 L13.5673981,18.0512273 L14.2194357,18.0512273 L14.2194357,19.357524 L15.5862069,18.9220918 C15.5862069,20.3564568 15.5485893,21.2273212 15.4858934,21.5346852 C15.4169279,21.8356457 15.1347962,21.9893276 14.6394984,21.9893276 L14.5768025,21.9893276 L14.3824451,21.3425827 C14.5329154,21.3425827 14.6645768,21.3489861 14.7774295,21.3489861 C14.846395,21.3489861 14.8902821,21.2785486 14.9028213,21.1440768 C14.9153605,21.022412 14.9278997,20.5869797 14.9278997,19.8377801 L14.2194357,20.0618997 L14.2194357,22.5784418 L13.5673981,22.5784418 L13.5673981,20.266809 L12.846395,20.4909285 L12.846395,22.9370331 C12.846395,23.1291355 12.9467085,23.2315902 13.1473354,23.2315902 L14.9905956,23.2315902 C15.1222571,23.2315902 15.2163009,23.1867663 15.2789969,23.1099253 C15.3291536,23.0202775 15.3667712,22.7257204 15.3855799,22.2198506 L16,22.4375667 C15.9561129,23.1099253 15.8746082,23.5197439 15.7617555,23.660619 C15.6426332,23.7950907 15.4231975,23.8655283 15.1034483,23.8655283 Z" id="其他" fill="#FFFFFF"></path>
            </g>
        </g>
    </g>
</svg>

<svg width="60" height="60" xmlns="http://www.w3.org/2000/svg" xmlns:xlink="http://www.w3.org/1999/xlink"><defs><rect id="a" x="0" y="4" width="24" height="24" rx="2"/><path d="M21.35 21.597h4.461s.002-.002 0-.002l-1.682-1.902a.454.454 0 0 1-.01-.57.307.307 0 0 1 .484-.01l2.292 2.59a.442.442 0 0 1 .105.29.44.44 0 0 1-.105.29l-2.304 2.604a.316.316 0 0 1-.237.113.317.317 0 0 1-.247-.123.455.455 0 0 1 .01-.57l1.682-1.902v-.002h-4.457c-.182 0-.33-.167-.341-.378-.012-.234.15-.428.349-.428z" id="b"/></defs><g fill="none" fill-rule="evenodd"><circle fill="#5473F2" cx="30" cy="30" r="30"/><g transform="translate(15 16)"><rect stroke="#FFF" stroke-width="1.5" x="4.75" y=".75" width="22.5" height="22.5" rx="2"/><use fill="#5473F2" xlink:href="#a"/><rect stroke="#FFF" stroke-width="1.5" x=".75" y="4.75" width="22.5" height="22.5" rx="2"/><rect fill="#FFF" x="4" y="8" width="15" height="1.5" rx=".75"/><rect fill="#FFF" x="4" y="13" width="15" height="1.5" rx=".75"/><circle fill="#5473F2" cx="23.5" cy="21.5" r="7.5"/><circle stroke="#FFF" stroke-width="1.5" fill="#5473F2" cx="24" cy="22" r="6"/><g fill-rule="nonzero"><use fill="#FFF" fill-rule="evenodd" xlink:href="#b"/><path stroke="#FFF" stroke-width=".25" d="M25.536 21.472l-1.5-1.697a.578.578 0 0 1-.013-.73.432.432 0 0 1 .674-.015l2.292 2.59c.087.1.136.235.136.373 0 .14-.049.273-.136.373l-2.304 2.604a.44.44 0 0 1-.331.155.441.441 0 0 1-.344-.17.58.58 0 0 1 .013-.73l1.5-1.697h-4.181c-.252 0-.452-.222-.466-.497-.015-.3.198-.559.474-.559h4.186z"/></g><path d="M4.113 18.57H5.14v-.519H5.8v.519h2.07v-.519h.658v.519h1.028v.627H8.527v2.715h1.147v.622H4v-.622h1.141v-2.715H4.113v-.627zm1.686 3.342h2.07v-.55h-2.07v.55zm0-1.114h2.07v-.518h-2.07v.518zm0-1.082h2.07v-.519h-2.07v.52zm.076 2.85l.464.422c-.502.372-1.116.705-1.844.993l-.413-.55c.708-.244 1.304-.532 1.793-.865zm1.83.032c.69.224 1.317.493 1.881.8l-.363.583a8.864 8.864 0 0 0-1.85-.877l.332-.506zM11.48 18l.589.288c-.138.461-.32.91-.545 1.338V24h-.646v-3.349a9.898 9.898 0 0 1-.52.634l-.214-.685c.602-.737 1.047-1.601 1.336-2.6zm3.623 5.866h-2.119c-.526 0-.79-.282-.79-.84v-2.33l-.482.147v-.679l.482-.153v-1.358h.652V19.8l.721-.23V18.05h.652v1.307l1.367-.436c0 1.434-.037 2.305-.1 2.613-.07.3-.351.454-.847.454h-.062l-.195-.646c.15 0 .283.006.395.006.07 0 .113-.07.126-.205.012-.122.025-.557.025-1.306l-.709.224v2.516h-.652v-2.311l-.72.224v2.446c0 .192.1.295.3.295h1.844c.131 0 .225-.045.288-.122.05-.09.088-.384.107-.89l.614.218c-.044.672-.125 1.082-.238 1.223-.12.134-.339.205-.659.205z" fill="#FFF"/></g></g></svg>
